X:50
T:Reel 50
M:4/4
K:Dmix
L:1/8
cB|AD (3DDD A2GF|EDCD EFGE|AD (3DDD A2GF|EDCE D2cB|AD (3DDD  (3ABc GF|EDCD EFGB|Addc  (3ABc GF|EDCE D2|z2|ECEG c2cd|ecdB cAGB|Addc d2cd|ecdB cAGB|Addc d2cd|ecdB cBAd|efdB cBcd|ecdB cAGE|
